Numix-GalliumOS/24/status/user-available.svg

<?xml version="1.0" encoding="UTF-8" standalone="no"?>
<svg
   xmlns:dc="http://purl.org/dc/elements/1.1/"
   xmlns:cc="http://creativecommons.org/ns#"
   xmlns:rdf="http://www.w3.org/1999/02/22-rdf-syntax-ns#"
   xmlns:svg="http://www.w3.org/2000/svg"
   xmlns="http://www.w3.org/2000/svg"
   xmlns:sodipodi="http://sodipodi.sourceforge.net/DTD/sodipodi-0.dtd"
   xmlns:inkscape="http://www.inkscape.org/namespaces/inkscape"
   width="24"
   viewBox="0 0 24 24"
   height="24"
   id="svg2"
   version="1.1"
   inkscape:version="0.91 r"
   sodipodi:docname="user-available.svg">
  <metadata
     id="metadata18">
    <rdf:RDF>
      <cc:Work
         rdf:about="">
        <dc:format>image/svg+xml</dc:format>
        <dc:type
           rdf:resource="http://purl.org/dc/dcmitype/StillImage" />
        <dc:title />
      </cc:Work>
    </rdf:RDF>
  </metadata>
  <sodipodi:namedview
     pagecolor="#ffffff"
     bordercolor="#666666"
     borderopacity="1"
     objecttolerance="10"
     gridtolerance="10"
     guidetolerance="10"
     inkscape:pageopacity="0"
     inkscape:pageshadow="2"
     inkscape:window-width="1280"
     inkscape:window-height="998"
     id="namedview16"
     showgrid="true"
     inkscape:zoom="34.147786"
     inkscape:cx="12.117138"
     inkscape:cy="12"
     inkscape:window-x="0"
     inkscape:window-y="0"
     inkscape:window-maximized="1"
     inkscape:current-layer="svg2">
    <inkscape:grid
       type="xygrid"
       id="grid3029" />
  </sodipodi:namedview>
  <defs
     id="defs4" />
  <g
     id="g3935"
     transform="translate(4,4)">
    <path
       sodipodi:nodetypes="ssssscsccsccscccc"
       inkscape:connector-curvature="0"
       id="path2999-7"
       d="M 8,0 C 3.581722,0 0,3.1340067 0,7 c 0,3.865993 3.581722,7 8,7 4.418278,0 8,-3.134007 8,-7 C 16,3.1340067 12.418278,0 8,0 z m 2.875,3 c 0.401883,-0.010736 0.809104,0.2064933 1,0.53125 0.190893,0.324756 0.168587,0.7279647 -0.0625,1.03125 L 8.1875,9.59375 C 8.0091644,9.837988 7.7192845,9.97749 7.40625,10 7.0932155,10.022511 6.7573095,9.928096 6.53125,9.71875 l -2.1875,-2 C 3.9016782,7.3591024 3.893034,6.6650529 4.3125,6.28125 4.7319661,5.8974471 5.4856752,5.9018574 5.875,6.3125 L 7.125,7.4375 10,3.46875 C 10.190895,3.1976727 10.523352,3.010735 10.875,3 z"
       style="fill:#4cd278;fill-opacity:1;stroke:none" />
    <path
       sodipodi:nodetypes="cccc"
       inkscape:connector-curvature="0"
       id="path3001-7"
       d="M 8.3362186,12 14,16 13,10 z"
       style="fill:#4cd278;fill-opacity:1;stroke:none" />
  </g>
</svg>

<svg xmlns="http://www.w3.org/2000/svg" viewBox="0 0 24 24">
 <g transform="translate(4,4)">
  <path d="m 8 0 c -4.418 0 -8 3.134 -8 7 c 0 3.866 3.582 7 8 7 4.418 0 8 -3.134 8 -7 c 0 -3.866 -3.582 -7 -8 -7 z m 2.875 3 c 0.402 -0.011 0.809 0.206 1 0.531 0.191 0.325 0.169 0.728 -0.063 1.031 l -3.625 5.03 c -0.178 0.244 -0.468 0.384 -0.781 0.406 -0.313 0.023 -0.649 -0.072 -0.875 -0.281 l -2.188 -2 c -0.442 -0.36 -0.451 -1.054 -0.031 -1.438 0.419 -0.384 1.173 -0.379 1.563 0.031 l 1.25 1.125 2.875 -3.969 c 0.191 -0.271 0.523 -0.458 0.875 -0.469 z" style="fill:#4cd278;fill-opacity:1;stroke:none"/>
  <path d="m 8.336 12 5.664 4 -1 -6 z" style="fill:#4cd278;fill-opacity:1;stroke:none"/>
 </g>
</svg>
